X: 1
T: Howley & Scahill's
R: jig
C: Mohsen Amini
M: 6/8
L: 1/8
K: Bmaj
|: ~B3 gBf | f/f/fg fdc  | ~B3  GBF| EFG Bdc  |
   ~B3 gBf | f/f/fg fg^a | b2 f gfd| ~e3 edc :|
|: cdB B/B/BF | EFG Bdc | cdB B/B/Bf | ~g3  fdc  |
   cdB B/B/BF | EFG BEF | GBd edB    |1 ~c3 cdB :|2 ~c3 cdc ||



